X:62
T:Blodau'r Drain - The Flowers of the Thorn
M:3/4
L:1/8
Q:140
C:Trad.
R:Waltz
K:G
GF | E4 F2 | G2 F2 E2 | B2 AG FE | F4 D2 | E2 EG FA |
G2 F2 E2 | ^D3 F EG | F4 :|| F2 | G4 G2 | A4 A2|
B2 B2 c2 | B4 A2 | GF GA G2 | AG AB A2 |
B2 B2 c2 | d3 c BA | G2 GA BG | A2 AB cA | B2 G2 E2|
^D4 F2 | E2 B2 G2 | c2 B2 A2 | G2 AG FG| E4 ||
